public/images/hashed/2b580a7df0558e43f392c9cc2e81e1d5.svg

<?xml version="1.0" encoding="UTF-8"?>
<svg width="80px" height="80px" viewBox="0 0 80 80" version="1.1" xmlns="http://www.w3.org/2000/svg" xmlns:xlink="http://www.w3.org/1999/xlink">
    <!-- Generator: Sketch 64 (93537) - https://sketch.com -->
    <title>Icon-Architecture/64/Arch_Amazon-CloudSearch_64</title>
    <desc>Created with Sketch.</desc>
    <defs>
        <linearGradient x1="0%" y1="100%" x2="100%" y2="0%" id="linearGradient-1">
            <stop stop-color="#4D27A8" offset="0%"></stop>
            <stop stop-color="#A166FF" offset="100%"></stop>
        </linearGradient>
    </defs>
    <g id="Icon-Architecture/64/Arch_Amazon-CloudSearch_64" stroke="none" stroke-width="1" fill="none" fill-rule="evenodd">
        <g id="Icon-Architecture-BG/64/Analytics" fill="url(#linearGradient-1)">
            <rect id="Rectangle" x="0" y="0" width="80" height="80"></rect>
        </g>
        <path d="M46.7092755,26.8455151 L46.7092755,28.8536753 C45.8354543,28.8536753 45.0058263,29.1719686 44.3730592,29.7503188 C44.1279875,29.9732245 43.7874986,30.0605795 43.4660931,29.9862776 C43.1436832,29.9119756 42.879528,29.6820413 42.759001,29.3727846 C41.5336425,26.2229855 38.3567499,24.1063847 34.8534299,24.1063847 C32.4368623,24.1063847 30.133791,25.1034362 28.5347986,26.8425029 C27.1617945,28.3315536 26.4064915,30.2372976 26.4064915,32.2093109 C26.4064915,32.6480938 26.1222485,33.0467136 25.703417,33.1782481 C23.6142812,33.8339124 22.0584777,35.5177547 21.631611,37.5771229 C21.6296022,37.5931882 21.6275934,37.6082494 21.6245802,37.6223065 C21.5542728,38.0038569 21.5201234,38.3623135 21.5201234,38.7177579 C21.5201234,41.9358345 24.2510658,44.5544753 27.6067402,44.5544753 L43.5072732,44.5544753 L43.5072732,46.5626355 L27.6067402,46.5626355 C23.1432212,46.5626355 19.511339,43.0433348 19.511339,38.7177579 C19.511339,38.2528688 19.5535235,37.7899879 19.6409056,37.3050172 C19.6439188,37.2799152 19.6479364,37.2568214 19.6529583,37.2337275 C20.1611808,34.6622785 21.962056,32.5235879 24.4238213,31.508463 C24.5865328,29.2784011 25.5065561,27.1648126 27.0573377,25.4829785 C29.0339815,23.3322389 31.8764115,22.0982245 34.8534299,22.0982245 C38.7414322,22.0982245 42.3110421,24.2248661 44.0978558,27.5001753 C44.8893168,27.0734413 45.7842303,26.8455151 46.7092755,26.8455151 M68.7406185,68.739752 C67.0693099,70.4105412 64.3484114,70.4095372 62.6771028,68.7407561 L48.9902502,55.0641814 C51.2993479,53.3251148 53.3051191,51.2044976 54.9151598,48.7977177 L68.7456404,62.6851492 C70.4109227,64.3559384 70.4079095,67.071975 68.7406185,68.739752 M10.0087844,34.6040418 C10.0087844,21.5931723 20.597087,11.0081601 33.6120012,11.0081601 C46.6269153,11.0081601 57.215218,21.5931723 57.215218,34.6040418 C57.215218,47.6149114 46.6269153,58.1999235 33.6120012,58.1999235 C20.597087,58.1999235 10.0087844,47.6149114 10.0087844,34.6040418 M70.1698686,61.2683922 L55.9928726,47.033549 C58.0478591,43.3495792 59.2240024,39.1123613 59.2240024,34.6040418 C59.2240024,20.486676 47.7347599,9 33.6120012,9 C19.4892424,9 8,20.486676 8,34.6040418 C8,48.7224117 19.4892424,60.2080836 33.6120012,60.2080836 C38.6480237,60.2080836 43.3435572,58.7421267 47.3088977,56.2218858 L61.2568922,70.1615294 C62.4842595,71.3875112 64.0963089,72 65.7083584,72 C67.3204079,72 68.9334618,71.3865071 70.1608291,70.1595212 C72.6095373,67.7105699 72.6135548,63.7223639 70.1698686,61.2683922 M33.6120012,52.1754431 C23.9206208,52.1754431 16.0351376,44.2924104 16.0351376,34.6040418 C16.0351376,24.9156732 23.9206208,17.0326406 33.6120012,17.0326406 C43.3033815,17.0326406 51.1888647,24.9156732 51.1888647,34.6040418 C51.1888647,44.2924104 43.3033815,52.1754431 33.6120012,52.1754431 M33.6120012,15.0244804 C22.8127762,15.0244804 14.0263532,23.8081729 14.0263532,34.6040418 C14.0263532,45.3999107 22.8127762,54.1836032 33.6120012,54.1836032 C44.4112261,54.1836032 53.1976491,45.3999107 53.1976491,34.6040418 C53.1976491,23.8081729 44.4112261,15.0244804 33.6120012,15.0244804" id="Amazon-CloudSearch_Icon_64_Squid" fill="#FFFFFF"></path>
    </g>
</svg>

<svg xmlns="http://www.w3.org/2000/svg" width="80" height="80"><defs><linearGradient id="a" x1="0%" x2="100%" y1="100%" y2="0%"><stop offset="0%" stop-color="#4D27A8"/><stop offset="100%" stop-color="#A166FF"/></linearGradient></defs><g fill="none" fill-rule="evenodd"><path fill="url(#a)" d="M0 0h80v80H0z"/><path fill="#FFF" d="M46.71 26.846v2.008a3.45 3.45 0 0 0-2.337.896c-.245.223-.586.31-.907.236a1.001 1.001 0 0 1-.707-.613c-1.225-3.15-4.402-5.267-7.906-5.267-2.416 0-4.72.997-6.318 2.737-1.373 1.489-2.129 3.394-2.129 5.366 0 .44-.284.838-.703.97-2.089.655-3.645 2.339-4.071 4.398a5.989 5.989 0 0 0-.111 1.14c0 3.219 2.73 5.837 6.086 5.837h15.9v2.009h-15.9c-4.464 0-8.096-3.52-8.096-7.845a7.89 7.89 0 0 1 .142-1.484c.508-2.572 2.31-4.71 4.77-5.726a9.944 9.944 0 0 1 2.634-6.025c1.977-2.15 4.82-3.385 7.796-3.385 3.888 0 7.458 2.127 9.245 5.402a5.496 5.496 0 0 1 2.611-.654M68.741 68.74a4.296 4.296 0 0 1-6.064 0L48.99 55.065a25.826 25.826 0 0 0 5.925-6.266l13.83 13.887a4.292 4.292 0 0 1-.004 6.055M10.009 34.604c0-13.01 10.588-23.596 23.603-23.596 13.015 0 23.603 10.585 23.603 23.596 0 13.01-10.588 23.596-23.603 23.596-13.015 0-23.603-10.585-23.603-23.596m60.16 26.664L55.994 47.034a25.437 25.437 0 0 0 3.231-12.43C59.224 20.487 47.734 9 33.612 9 19.489 9 8 20.487 8 34.604c0 14.118 11.49 25.604 25.612 25.604a25.45 25.45 0 0 0 13.697-3.986l13.948 13.94A6.279 6.279 0 0 0 65.708 72a6.279 6.279 0 0 0 4.453-1.84 6.303 6.303 0 0 0 .009-8.892m-36.558-9.093c-9.691 0-17.577-7.883-17.577-17.571 0-9.688 7.886-17.571 17.577-17.571 9.691 0 17.577 7.883 17.577 17.571 0 9.688-7.886 17.571-17.577 17.571m0-37.15c-10.8 0-19.586 8.783-19.586 19.579 0 10.796 8.787 19.58 19.586 19.58 10.8 0 19.586-8.784 19.586-19.58 0-10.796-8.787-19.58-19.586-19.58"/></g></svg>
